X: 7
T: Snug In The Blanket
R: jig
M: 6/8
L: 1/8
K: Gmaj
|:.A/.c/.A.A cBc | EE/E/E c2 A | B2 G AFD | GFG BAG |
A2 B cBc | EE/E/E c2 A | .B/.c/.dB cAF | G2 A BAG :|
|: FGA AFd | AFd AFd | FGA AFD | G3 BAG |
FGA AFd | AFd ABc | .B/.c/.dB cAF | G2 A BAG :|
|: FGA AFA | DD/D/D AFA | DD/D/D AFD | EE/E/E GFE |
FGA AFA | DD/D/D ABc | .B/.c/.dB cAF | G3 G2 z :|


Tune 1747	Setting 15185

